brandFactory_export/3.Masa/Maletin _3Masa.svg

<?xml version="1.0" encoding="UTF-8"?>
<svg width="24px" height="24px" viewBox="0 0 24 24" version="1.1" xmlns="http://www.w3.org/2000/svg" xmlns:xlink="http://www.w3.org/1999/xlink">
    <title>3.Masa/Maletin _3Masa</title>
    <g id="Symbols" stroke="none" stroke-width="1" fill="none" fill-rule="evenodd">
        <g id="3.Masa/Maletin-_3Masa" fill="#5CB615" fill-rule="nonzero">
            <path d="M13.989916,17.3983193 L13.989916,15.6941176 C17.7210084,15.4319328 21.3142857,14.4941176 23.6235294,13.189916 L23.6235294,21.8621849 C23.6235294,22.8336134 22.8403361,23.6235294 21.8756303,23.6235294 L1.74789916,23.6235294 C0.783193277,23.6235294 3.94430453e-31,22.8336134 3.94430453e-31,21.8621849 L3.94430453e-31,12.9613445 C2.29915966,14.3663866 5.89579832,15.3781513 9.6302521,15.6739496 L9.6302521,17.3983193 C9.6302521,17.8151261 9.81848739,18.1613445 10.1512605,18.3798319 C10.3966387,18.5378151 10.702521,18.6184874 11.0957983,18.6184874 L12.5344538,18.6184874 C12.9176471,18.6184874 13.2336134,18.5378151 13.4689076,18.3798319 C13.805042,18.1613445 13.989916,17.8151261 13.989916,17.3983193 Z M16.2487395,6.02352941 L16.2487395,5.60336134 C16.2487395,3.33445378 14.3058824,1.48907563 11.9226891,1.48907563 L11.7008403,1.48907563 C9.31428571,1.48907563 7.37478992,3.33445378 7.37478992,5.60336134 L7.37478992,6.02352941 L16.2487395,6.02352941 Z M21.8756303,6.02352941 C22.8403361,6.02352941 23.6235294,6.81344538 23.6235294,7.78487395 L23.6235294,11.4386555 C21.3310924,13.0991597 16.4773109,14.2890756 11.902521,14.2890756 C7.24033613,14.2890756 2.2789916,12.9815126 -1.77635684e-15,11.1697479 L-1.77635684e-15,7.78487395 C-1.77635684e-15,6.81344538 0.783193277,6.02352941 1.7512605,6.02352941 L5.89915966,6.02352941 L5.89915966,5.60336134 C5.89915966,2.51428571 8.50420168,0.00336134454 11.7042017,0.00336134454 L11.9260504,0.00336134454 C15.1260504,0.00336134454 17.7310924,2.51764706 17.7310924,5.60336134 L17.7310924,6.02352941 L21.8756303,6.02352941 Z M11.1058824,17.1327731 L11.1058824,15.7747899 L12.5142857,15.7747899 L12.5142857,17.1327731 L11.1058824,17.1327731 Z" id="Maletin-_3Masa"></path>
        </g>
    </g>
</svg>

<svg width="24" height="24" viewBox="0 0 24 24" xmlns="http://www.w3.org/2000/svg"><path d="M13.99 17.398v-1.704c3.731-.262 7.324-1.2 9.634-2.504v8.672c0 .972-.784 1.762-1.748 1.762H1.748c-.965 0-1.748-.79-1.748-1.762v-8.9c2.3 1.404 5.896 2.416 9.63 2.712v1.724c0 .417.188.763.521.982.246.158.552.238.945.238h1.438c.384 0 .7-.08.935-.238.336-.219.52-.565.52-.982zm2.259-11.374v-.42c0-2.27-1.943-4.115-4.326-4.115H11.7c-2.387 0-4.326 1.845-4.326 4.114v.42h8.874zm5.627 0c.964 0 1.748.79 1.748 1.76v3.655c-2.293 1.66-7.147 2.85-11.721 2.85-4.663 0-9.624-1.307-11.903-3.12V7.786c0-.972.783-1.761 1.751-1.761H5.9v-.42c0-3.09 2.605-5.6 5.805-5.6h.222c3.2 0 5.805 2.514 5.805 5.6v.42h4.145zm-10.77 11.109v-1.358h1.408v1.358h-1.408z" fill="#5CB615" fill-rule="nonzero"/></svg>
